public/theme/icons/gluten-free.svg

<svg width="33" height="34" viewBox="0 0 33 34" fill="none" xmlns="http://www.w3.org/2000/svg">
<circle cx="16" cy="15" r="15" fill="#E6A803"/>
<path fill-rule="evenodd" clip-rule="evenodd" d="M29.9087 20.6274C30.6124 18.8897 31 16.9901 31 15C31 6.71573 24.2843 0 16 0C7.71573 0 1 6.71573 1 15C1 23.2843 7.71573 30 16 30C17.3273 30 18.6143 29.8276 19.8399 29.504L11.291 20.9551L14.3047 17.9414L12.0605 15.6973L14.649 13.0425L15.2174 13.6109L15.4707 12L15.681 12.2103L16.4707 7.18945L29.9087 20.6274Z" fill="#F7B507"/>
<g filter="url(#filter0_d_105_29328)">
<path fill-rule="evenodd" clip-rule="evenodd" d="M16.5036 7.22823C16.2301 6.92392 15.7699 6.92392 15.4964 7.22823C14.9213 7.86809 14.0529 8.99363 14.0024 10.0021C13.9467 11.1154 14.8717 12.4096 15.4819 13.1364C15.7574 13.4645 16.2426 13.4645 16.5181 13.1364C17.1284 12.4096 18.0533 11.1154 17.9976 10.0021C17.9472 8.99363 17.0787 7.86809 16.5036 7.22823ZM11.0447 12.4226C11.0105 11.9498 11.4299 11.5992 11.8887 11.7186C12.8291 11.9636 14.2745 12.4666 14.9081 13.3498C15.5101 14.1891 15.567 15.6339 15.5307 16.5595C15.5124 17.0253 15.0679 17.3252 14.6282 17.1704C13.7979 16.878 12.5621 16.3405 11.9579 15.5733C11.3194 14.7624 11.1115 13.3458 11.0447 12.4226ZM20.9554 12.4226C20.9896 11.9498 20.5701 11.5992 20.1113 11.7186C19.1709 11.9636 17.7255 12.4666 17.092 13.3498C16.4899 14.1891 16.4331 15.6339 16.4694 16.5595C16.4876 17.0253 16.9322 17.3252 17.3718 17.1704C18.2021 16.878 19.4379 16.3405 20.0421 15.5733C20.6806 14.7624 20.8886 13.3458 20.9554 12.4226ZM10.8533 16.0238C10.3929 15.9106 9.97329 16.2607 10.0013 16.734C10.0671 17.8439 10.3022 19.7178 11.1258 20.7637C11.9063 21.7548 13.5528 22.431 14.5562 22.7699C14.9978 22.919 15.4416 22.619 15.4662 22.1536C15.5249 21.0439 15.4924 19.1379 14.717 18.057C13.9022 16.921 11.9838 16.3017 10.8533 16.0238ZM21.9987 16.734C22.0268 16.2607 21.6071 15.9106 21.1467 16.0238C20.0162 16.3017 18.0979 16.921 17.283 18.057C16.5077 19.1379 16.4752 21.0439 16.5339 22.1536C16.5585 22.619 17.0022 22.919 17.4438 22.7699C18.4473 22.431 20.0937 21.7548 20.8742 20.7637C21.6978 19.7178 21.9329 17.8439 21.9987 16.734Z" fill="white"/>
</g>
<g filter="url(#filter1_d_105_29328)">
<path fill-rule="evenodd" clip-rule="evenodd" d="M28.1477 6.19865L7.19853 27.1478C6.38513 26.5574 5.63332 25.8874 4.95459 25.1491L26.149 3.95471C26.8873 4.63345 27.5573 5.38525 28.1477 6.19865Z" fill="white"/>
</g>
<defs>
<filter id="filter0_d_105_29328" x="6" y="5" width="20" height="23.8085" filterUnits="userSpaceOnUse" color-interpolation-filters="sRGB">
<feFlood flood-opacity="0" result="BackgroundImageFix"/>
<feColorMatrix in="SourceAlpha" type="matrix" values="0 0 0 0 0 0 0 0 0 0 0 0 0 0 0 0 0 0 127 0" result="hardAlpha"/>
<feOffset dy="2"/>
<feGaussianBlur stdDeviation="2"/>
<feComposite in2="hardAlpha" operator="out"/>
<feColorMatrix type="matrix" values="0 0 0 0 0 0 0 0 0 0 0 0 0 0 0 0 0 0 0.1 0"/>
<feBlend mode="normal" in2="BackgroundImageFix" result="effect1_dropShadow_105_29328"/>
<feBlend mode="normal" in="SourceGraphic" in2="effect1_dropShadow_105_29328" result="shape"/>
</filter>
<filter id="filter1_d_105_29328" x="0.95459" y="1.95471" width="31.1929" height="31.1931" filterUnits="userSpaceOnUse" color-interpolation-filters="sRGB">
<feFlood flood-opacity="0" result="BackgroundImageFix"/>
<feColorMatrix in="SourceAlpha" type="matrix" values="0 0 0 0 0 0 0 0 0 0 0 0 0 0 0 0 0 0 127 0" result="hardAlpha"/>
<feOffset dy="2"/>
<feGaussianBlur stdDeviation="2"/>
<feComposite in2="hardAlpha" operator="out"/>
<feColorMatrix type="matrix" values="0 0 0 0 0 0 0 0 0 0 0 0 0 0 0 0 0 0 0.1 0"/>
<feBlend mode="normal" in2="BackgroundImageFix" result="effect1_dropShadow_105_29328"/>
<feBlend mode="normal" in="SourceGraphic" in2="effect1_dropShadow_105_29328" result="shape"/>
</filter>
</defs>
</svg>

<svg xmlns="http://www.w3.org/2000/svg" width="33" height="34" fill="none"><circle cx="16" cy="15" r="15" fill="#E6A803"/><path fill="#F7B507" fill-rule="evenodd" d="M29.909 20.627A15 15 0 0 0 31 15c0-8.284-6.716-15-15-15S1 6.716 1 15s6.716 15 15 15c1.327 0 2.614-.172 3.84-.496l-8.549-8.549 3.014-3.014-2.245-2.244 2.589-2.654.568.568.254-1.611.21.21.79-5.02z" clip-rule="evenodd"/><g filter="url(#a)"><path fill="#fff" fill-rule="evenodd" d="M16.504 7.228a.67.67 0 0 0-1.008 0c-.575.64-1.443 1.766-1.494 2.774-.055 1.113.87 2.408 1.48 3.134a.668.668 0 0 0 1.036 0c.61-.726 1.535-2.02 1.48-3.134-.05-1.008-.92-2.134-1.494-2.774m-5.46 5.195a.667.667 0 0 1 .845-.704c.94.245 2.386.748 3.02 1.63.601.84.658 2.285.622 3.21a.668.668 0 0 1-.903.611c-.83-.292-2.066-.83-2.67-1.597-.639-.81-.847-2.227-.913-3.15m9.911 0a.667.667 0 0 0-.844-.704c-.94.245-2.386.748-3.019 1.63-.602.84-.659 2.285-.623 3.21a.668.668 0 0 0 .903.611c.83-.292 2.066-.83 2.67-1.597.639-.81.847-2.227.913-3.15m-10.102 3.6a.68.68 0 0 0-.852.711c.066 1.11.301 2.984 1.125 4.03.78.99 2.427 1.667 3.43 2.006.442.149.886-.151.91-.616.059-1.11.026-3.016-.749-4.097-.815-1.136-2.733-1.755-3.864-2.033M22 16.735a.68.68 0 0 0-.852-.71c-1.13.278-3.05.897-3.864 2.033-.775 1.08-.808 2.987-.75 4.097a.68.68 0 0 0 .91.616c1.004-.339 2.65-1.015 3.431-2.006.824-1.046 1.059-2.92 1.125-4.03" clip-rule="evenodd"/></g><g filter="url(#b)"><path fill="#fff" fill-rule="evenodd" d="M28.148 6.199 7.198 27.148a15 15 0 0 1-2.243-1.999L26.149 3.955c.738.678 1.408 1.43 1.999 2.244" clip-rule="evenodd"/></g><defs><filter id="a" width="20" height="23.808" x="6" y="5" color-interpolation-filters="sRGB" filterUnits="userSpaceOnUse"><feFlood flood-opacity="0" result="BackgroundImageFix"/><feColorMatrix in="SourceAlpha" result="hardAlpha" values="0 0 0 0 0 0 0 0 0 0 0 0 0 0 0 0 0 0 127 0"/><feOffset dy="2"/><feGaussianBlur stdDeviation="2"/><feComposite in2="hardAlpha" operator="out"/><feColorMatrix values="0 0 0 0 0 0 0 0 0 0 0 0 0 0 0 0 0 0 0.1 0"/><feBlend in2="BackgroundImageFix" result="effect1_dropShadow_105_29328"/><feBlend in="SourceGraphic" in2="effect1_dropShadow_105_29328" result="shape"/></filter><filter id="b" width="31.193" height="31.193" x=".955" y="1.955" color-interpolation-filters="sRGB" filterUnits="userSpaceOnUse"><feFlood flood-opacity="0" result="BackgroundImageFix"/><feColorMatrix in="SourceAlpha" result="hardAlpha" values="0 0 0 0 0 0 0 0 0 0 0 0 0 0 0 0 0 0 127 0"/><feOffset dy="2"/><feGaussianBlur stdDeviation="2"/><feComposite in2="hardAlpha" operator="out"/><feColorMatrix values="0 0 0 0 0 0 0 0 0 0 0 0 0 0 0 0 0 0 0.1 0"/><feBlend in2="BackgroundImageFix" result="effect1_dropShadow_105_29328"/><feBlend in="SourceGraphic" in2="effect1_dropShadow_105_29328" result="shape"/></filter></defs></svg>
